!!!!SEGMENT: pl-cz--ii-188--007_orllowski-michall--missa-ex-g-cum-sancto-spirito.krn
!!!cenid: 17xx:1011
!!!COM: Orłowski, Michał
!!!COM-rismid: pe30020336
!!!CDT: ~1700-~1799
!!!CNT:
!!!OPR: Missa ex G
!!!OTL: Cum Sancto Spirito
!!!OMV: 007
!!!PDT:
!!!AGN: Sacred; Mass
!!!SMS-siglum: PL-CZ
!!!SMS-shelfmark: II-188
!!!SMS-shelfwork: 001-007 M
!!!SMS-variant:
!!!SMS-altvar:
!!!NIFC-rismid: 300000944
!!!URL-scan: http://repozytorium.nifc.pl/skany/pl-cz-nut--ii-188
!!!ONB-nifc: UWAGA: części Mszy: Kyrie, Gloria, Laudamus, Domine deus, Qui tollis, Quoniam,
!!!key: G
**kern	**kern	**kern	**kern	**text	**kern	**text	**kern	**text	**kern	**kern
*part8	*part7	*part6	*part5	*part5	*part4	*part4	*part3	*part3	*part2	*part1
*staff8	*staff7	*staff6	*staff5	*staff5	*staff4	*staff4	*staff3	*staff3	*staff2	*staff1
*	*	*	*group1	*	*group1	*	*group1	*	*	*
*I"Fundamento.	*I"Violino Secundo.	*I"Violino Primo.	*I"Baſso.	*	*I"Canto 2do:	*	*I"Canto 1mo:	*	*I"Cornu 2do. in G.	*I"Cornu 1.mo. in G.
*I'org	*I'vl 2	*I'vl 1	*I'B	*	*I'S 2	*	*I'S 1	*	*I'cor 2 in G	*I'cor 1 in G
*Iorgan	*Ivioln	*Ivioln	*Ibass	*	*Isoprn	*	*Isoprn	*	*Icor	*Icor
*ICklav	*ICstr	*ICstr	*ICvox	*	*ICvox	*	*ICvox	*	*ICbras	*ICbras
*clefF4	*clefG2	*clefG2	*clefF4	*	*clefC1	*	*clefC1	*	*clefG2	*clefG2
*	*	*	*	*	*	*	*	*	*ITrd3c5	*ITrd3c5
*k[f#]	*k[f#]	*k[f#]	*k[f#]	*	*k[f#]	*	*k[f#]	*	*k[f#]	*k[f#]
*G:	*G:	*G:	*G:	*	*G:	*	*G:	*	*G:	*G:
*M3/4	*M3/4	*M3/4	*M3/4	*	*M3/4	*	*M3/4	*	*M3/4	*M3/4
*all\right	*all\right	*all\right	*all\right	*	*all\right	*	*all\right	*	*all\right	*all\right
=1	=1	=1	=1	=1	=1	=1	=1	=1	=1	=1
*	*	*	*2\right	*	*2\right	*	*2\right	*	*2\right	*2\right
!LO:TX:a:B:t=Adagio.	!LO:TX:a:B:t=Adagio	!LO:TX:a:B:t=Adagio.	!LO:TX:a:B:t=Adagio.	!	!LO:TX:a:B:t=Adagio.	!	!LO:TX:a:B:t=Adagio.	!	!LO:TX:a:B:t=Adagio.	!LO:TX:a:B:t=Adagio.
4G\	4b/	4gg\	2.G\	Cum	2.b\	Cum	2.dd\	Cum	2.g\	2.b\
4G\	4b/	4gg\	.	.	.	.	.	.	.	.
4G\	4b/	4gg\	.	.	.	.	.	.	.	.
=2	=2	=2	=2	=2	=2	=2	=2	=2	=2	=2
*2\right	*	*2\right	*	*	*	*	*	*	*	*
2G\	2b/	2gg\	2G\	San-	2b\	San-	2dd\	San-	2g\	2b\
4G\	4b/	4gg\	4G\	-cto	4b\	-cto	4dd\	-cto	4g\	4b\
=3	=3	=3	=3	=3	=3	=3	=3	=3	=3	=3
4.G\	4.b/	4.gg\	4.G\	Spi-	4.b\	Spi-	4.dd\	Spi-	4.g\	4.b\
8G\	8b/	8gg\	8G\	-ri-	8b\	-ri-	8dd\	-ri-	8g\	8b\
4G\	4b/	4gg\	4G\	-tu	4b\	-tu	4dd\	-tu	4g\	4b\
=4	=4	=4	=4	=4	=4	=4	=4	=4	=4	=4
4D/	4a/	4ff#\	2.D/	Cum	2.a\	Cum	2.ff#\	Cum	2.d/	2.a\
4D/	4a/	4ff#\	.	.	.	.	.	.	.	.
4D/	4a/	4ff#\	.	.	.	.	.	.	.	.
=5	=5	=5	=5	=5	=5	=5	=5	=5	=5	=5
2D/	2a/	2ff#\	2D/	San-	2a\	San-	2ff#\	San-	2d/	2a\
4D/	4a/	4ff#\	4D/	-cto	4a\	-cto	4ff#\	-cto	4d/	4a\
=6	=6	=6	=6	=6	=6	=6	=6	=6	=6	=6
2D/	2a/	2ff#\	2D/	Spi-	2a\	Spi-	2ff#\	Spi-	2d/	2a\
4D/	4a/	4ff#\	4D/	-ri-	4a\	-ri-	4ff#\	-ri-	4d/	4a\
=7	=7	=7	=7	=7	=7	=7	=7	=7	=7	=7
2D;</	2a;/	2ff#;\	2D/	-tu	2a\	-tu	2ff#\	-tu	2.d;/	2.a;\
4r	4r	4r	4r	.	4r	.	4r	.	.	.
!LO:LB:g=original	!LO:LB:g=original	!LO:LB:g=original	!	!	!LO:PB:g=original	!	!LO:LB:g=original	!	!LO:LB:g=original	!LO:LB:g=original
=8||	=8||	=8||	=8||	=8||	=8||	=8||	=8||	=8||	=8||	=8||
*M3/8	*M3/8	*M3/8	*M3/8	*	*M3/8	*	*M3/8	*	*M3/8	*M3/8
!	!LO:TX:a:B:t=Allo.	!LO:TX:a:t=In Gloria	!	!	!	!	!	!	!LO:TX:t=P:problem:w źródle błędne metrum 3/4	!
!LO:TX:a:B:t=Allo.	!LO:TX:a:t=In Gloria	!LO:TX:a:B:t=Allo.	!LO:TX:a:B:t=Allo	!	!LO:TX:a:B:t=Allo.	!	!LO:TX:a:B:t=Allo.	!	!LO:TX:a:t=In Gloria	!LO:TX:a:t=In Gloria
8r	1.r	1.r	8r	.	1.r	.	1.r	.	1.r	1.r
8G\L	.	.	8G\L	In	.	.	.	.	.	.
8B\J	.	.	8B\J	.	.	.	.	.	.	.
=9	=9	=9	=9	=9	=9	=9	=9	=9	=9	=9
8A\L	.	.	8A\	Glo-	.	.	.	.	.	.
8F#\	.	.	8F#\	-ri-	.	.	.	.	.	.
8D\J	.	.	8D\	-a	.	.	.	.	.	.
!	!	!	!LO:LB:g=original	!	!	!	!	!	!	!
=10	=10	=10	=10	=10	=10	=10	=10	=10	=10	=10
16G\LL	.	.	16G\LL	De-	.	.	.	.	.	.
16F#\	.	.	16F#\	.	.	.	.	.	.	.
16G\	.	.	16G\	.	.	.	.	.	.	.
16A\	.	.	16A\	.	.	.	.	.	.	.
16B\	.	.	16B\	.	.	.	.	.	.	.
16c\JJ	.	.	16c\JJ	.	.	.	.	.	.	.
=11	=11	=11	=11	=11	=11	=11	=11	=11	=11	=11
8d\L	.	.	8d\	-i	.	.	.	.	.	.
8c\	.	.	8c\	Pa-	.	.	.	.	.	.
8B\J	.	.	8B\	-tris	.	.	.	.	.	.
=12	=12	=12	=12	=12	=12	=12	=12	=12	=12	=12
8c\L	1.r	2.r	8c\	A-	1.r	.	2.r	.	1.r	1.r
8B\	.	.	8B\	.	.	.	.	.	.	.
8A\J	.	.	8A\	-men	.	.	.	.	.	.
=13	=13	=13	=13	=13	=13	=13	=13	=13	=13	=13
8B\L	.	.	8B\L	A-	.	.	.	.	.	.
8A\	.	.	8A\	.	.	.	.	.	.	.
8G\J	.	.	8G\J	.	.	.	.	.	.	.
=14	=14	=14	=14	=14	=14	=14	=14	=14	=14	=14
8A\L	.	4.r	8A\L	.	.	.	4.r	.	.	.
8G\	.	.	8G\	.	.	.	.	.	.	.
8F#\J	.	.	8F#\J	.	.	.	.	.	.	.
=15	=15	=15	=15	=15	=15	=15	=15	=15	=15	=15
4G\	.	8r	4G\	-men	.	.	8r	.	.	.
.	.	8dd\L	.	.	.	.	8dd\L	In	.	.
8r	.	8ff#\J	8r	.	.	.	8ff#\J	.	.	.
=16	=16	=16	=16	=16	=16	=16	=16	=16	=16	=16
4A\	1.r	8ee\L	4A\	A-	1.r	.	8ee\	Glo-	1.r	1.r
.	.	8cc#X\	.	.	.	.	8cc#X\	-ri-	.	.
!	!	!	!	!	!	!	!LO:TX:a:t=a	!	!	!
8AA/	.	8a\J	8AA/	.	.	.	8a\	-a	.	.
=17	=17	=17	=17	=17	=17	=17	=17	=17	=17	=17
4D/	.	16dd\LL	4D/	-men	.	.	16dd\LL	De-	.	.
.	.	16cc#X\	.	.	.	.	16cc#X\	.	.	.
.	.	16dd\	.	.	.	.	16dd\	.	.	.
.	.	16ee\	.	.	.	.	16ee\	.	.	.
8r	.	16ff#\	8r	.	.	.	16ff#\	.	.	.
.	.	16gg\JJ	.	.	.	.	16gg\JJ	.	.	.
!LO:LB:g=original	!	!	!	!	!	!	!	!	!	!
=18	=18	=18	=18	=18	=18	=18	=18	=18	=18	=18
4.D/	.	8aa\L	2.r	.	.	.	8aa\	-i	.	.
.	.	8gg\	.	.	.	.	8gg\	Pa-	.	.
.	.	8ff#\J	.	.	.	.	8ff#\	-tris	.	.
=19	=19	=19	=19	=19	=19	=19	=19	=19	=19	=19
4.A\	.	8gg\L	.	.	.	.	8gg\L	A-	.	.
.	.	8ff#\	.	.	.	.	8ff#\J	.	.	.
.	.	8ee\J	.	.	.	.	8ee\	-men	.	.
=20	=20	=20	=20	=20	=20	=20	=20	=20	=20	=20
*	*	*8va	*	*	*	*	*	*	*	*
4.D/	2.r	8ff#/L	4.r	.	2.r	.	8ff#\L	A-	1.r	1.r
.	.	8ee/	.	.	.	.	8ee\	.	.	.
.	.	8dd/J	.	.	.	.	8dd\J	.	.	.
*	*	*X8va	*	*	*	*	*	*	*	*
=21	=21	=21	=21	=21	=21	=21	=21	=21	=21	=21
4A\	.	8ee\L	4A\	A-	.	.	8ee\L	.	.	.
.	.	8dd\	.	.	.	.	8dd\	.	.	.
8AA/	.	8cc#X\J	8AA/	.	.	.	8cc#X\J	.	.	.
!	!	!	!LO:LB:g=original	!	!	!	!LO:LB:g=original	!	!	!
=22	=22	=22	=22	=22	=22	=22	=22	=22	=22	=22
4D/	8r	4dd\	4D/	-men	8r	.	4dd\	-men	.	.
.	8g/L	.	.	.	8g\L	In	.	.	.	.
8r	8b/J	8r	8r	.	8b\J	.	8r	.	.	.
!	!	!LO:LB:g=original	!	!	!	!	!	!	!	!
=23	=23	=23	=23	=23	=23	=23	=23	=23	=23	=23
4.D\	8a/L	4.a/	4.D\	A-	8a/L	Glo-	4.a\	A-	.	.
.	8f#/	.	.	.	8f#/	-ri-	.	.	.	.
.	8d/J	.	.	.	8d/J	-a	.	.	.	.
=24	=24	=24	=24	=24	=24	=24	=24	=24	=24	=24
4G\	16g/LL	4b/	4G\	-men	16g\LL	De-	4b\	-men	1.r	1.r
.	16f#/	.	.	.	16f#\	.	.	.	.	.
.	16g/	.	.	.	16g\	.	.	.	.	.
.	16a/	.	.	.	16a\	.	.	.	.	.
8r	16b/	8r	8r	.	16b\	.	8r	.	.	.
.	16cc/JJ	.	.	.	16cc\JJ	.	.	.	.	.
=25	=25	=25	=25	=25	=25	=25	=25	=25	=25	=25
4.G\	8dd\L	4.dd\	4.G\	A-	8dd\	-i	4.dd\	A-	.	.
.	8cc\	.	.	.	8cc\	Pa-	.	.	.	.
.	8b\J	.	.	.	8b\	-tris	.	.	.	.
=26	=26	=26	=26	=26	=26	=26	=26	=26	=26	=26
4.D/	8cc/L	4.cc\	4.D/	.	8cc\	A-	4.cc\	.	.	.
.	8b/	.	.	.	8b\	.	.	.	.	.
.	8a/J	.	.	.	8a\	-men	.	.	.	.
=27	=27	=27	=27	=27	=27	=27	=27	=27	=27	=27
4.GG/	8b/L	4.b\	4.GG/	.	8b\L	A-	4.b\	.	.	.
.	8a/	.	.	.	8a\	.	.	.	.	.
.	8g/J	.	.	.	8g\J	.	.	.	.	.
!	!	!	!	!	!LO:LB:g=original	!	!	!	!	!
=28	=28	=28	=28	=28	=28	=28	=28	=28	=28	=28
4.D\	8a/L	4.a/	4.D/	-men	8a\L	.	4.a\	.	4.r	4.r
.	8g/	.	.	.	8g\	.	.	.	.	.
.	8f#/J	.	.	.	8f#\J	.	.	.	.	.
=29	=29	=29	=29	=29	=29	=29	=29	=29	=29	=29
8G\L	4g/	4g/	8G\L	A-	4g/	-men	4g/	-men	8r	8r
8B\	.	.	8B\	.	.	.	.	.	8g\L	8b\L
8G\J	8r	8r	8G\J	.	8r	.	8r	.	8g\J	8b\J
!	!LO:LB:g=original	!	!	!	!	!	!	!	!	!
=30	=30	=30	=30	=30	=30	=30	=30	=30	=30	=30
!LO:TX:t=P:problem:mixed beam	!	!	!	!	!	!	!	!	!	!
16c\LL	4cc\	4ee\	16c\	-men	4.cc\	A-	4.ee\	A-	1.r	1.r
16C/	.	.	16C/LL	A-	.	.	.	.	.	.
16E/	.	.	16E/	.	.	.	.	.	.	.
16G/JJ	.	.	16G/JJ	.	.	.	.	.	.	.
8c\	8r	8r	8c\	-men	.	.	.	.	.	.
=31	=31	=31	=31	=31	=31	=31	=31	=31	=31	=31
16r	4b/	4dd\	16r	.	4.b\	-men	4.dd\	-men	.	.
16GG/LL	.	.	16GG/LL	A-	.	.	.	.	.	.
16BB/	.	.	16BB/	.	.	.	.	.	.	.
16D/JJ	.	.	16D/JJ	.	.	.	.	.	.	.
8G\	8r	8r	8G\	-men	.	.	.	.	.	.
!LO:LB:g=original	!	!	!	!	!	!	!	!	!	!
=32	=32	=32	=32	=32	=32	=32	=32	=32	=32	=32
*	*	*	*	*	*	*ij	*	*	*	*
16r	4a/	4cc\	16r	.	4.a\	A-	4.cc\	A-	.	.
16D\LL	.	.	16D\LL	A-	.	.	.	.	.	.
16F#\	.	.	16F#\	.	.	.	.	.	.	.
16A\JJ	.	.	16A\JJ	.	.	.	.	.	.	.
8d\	8r	8r	8d\	-men	.	.	.	.	.	.
!	!	!	!LO:LB:g=original	!	!	!	!	!	!	!
=33	=33	=33	=33	=33	=33	=33	=33	=33	=33	=33
16r	4g/	4b\	16r	.	4.g\	-men	4.b\	-men	.	.
*	*	*	*	*ij	*	*Xij	*	*	*	*
16GG/LL	.	.	16GG/LL	A-	.	.	.	.	.	.
16BB/	.	.	16BB/	.	.	.	.	.	.	.
16D/JJ	.	.	16D/JJ	.	.	.	.	.	.	.
8G\	8r	8r	8G\	-men	.	.	.	.	.	.
=34	=34	=34	=34	=34	=34	=34	=34	=34	=34	=34
*	*	*	*	*	*	*	*	*ij	*	*
16r	4cc\	4ee\	16r	.	4.cc\	A-	4.ee\	A-	1.r	1.r
16C\LL	.	.	16C\LL	A-	.	.	.	.	.	.
16E\	.	.	16E\	.	.	.	.	.	.	.
16G\JJ	.	.	16G\JJ	.	.	.	.	.	.	.
8c\	8r	8r	8c\	-men	.	.	.	.	.	.
!	!	!	!	!	!	!	!LO:LB:g=original	!	!	!
=35	=35	=35	=35	=35	=35	=35	=35	=35	=35	=35
16r	4b\	4dd\	16r	.	4.b\	-men	4.dd\	-men	.	.
16GG/LL	.	.	16GG/LL	A-	.	.	.	.	.	.
16BB/	.	.	16BB/	.	.	.	.	.	.	.
16D/JJ	.	.	16D/JJ	.	.	.	.	.	.	.
8G\	8r	8r	8G\	-men	.	.	.	.	.	.
=36	=36	=36	=36	=36	=36	=36	=36	=36	=36	=36
*	*	*	*	*	*	*ij	*	*	*	*
16r	4a/	4cc\	16r	.	4.a\	A-	4.cc\	A-	.	.
16D\LL	.	.	16D\LL	A-	.	.	.	.	.	.
16F#\	.	.	16F#\	.	.	.	.	.	.	.
16A\JJ	.	.	16A\JJ	.	.	.	.	.	.	.
8d\	8r	8r	8d\	-men	.	.	.	.	.	.
=37	=37	=37	=37	=37	=37	=37	=37	=37	=37	=37
16r	4g/	4b\	16r	.	4.g/	-men	4.b\	-men	.	.
*	*	*	*	*	*	*Xij	*	*Xij	*	*
16GG/LL	.	.	16GG/LL	A-	.	.	.	.	.	.
16BB/	.	.	16BB/	.	.	.	.	.	.	.
16D/JJ	.	.	16D/JJ	.	.	.	.	.	.	.
8G\	8r	8r	8G\	-men	.	.	.	.	.	.
*	*	*	*	*Xij	*	*	*	*	*	*
=38	=38	=38	=38	=38	=38	=38	=38	=38	=38	=38
*	*Xtuplet	*Xtuplet	*	*	*Xtuplet	*	*Xtuplet	*	*	*
!LO:TX:t=P:problem:mixed beam	!	!	!LO:TX:t=P:problem:mixed beam	!	!	!	!	!	!	!
8c\L	24cc/LL	24ee\LL	8c\L	A-	24cc\LL	A-	24ee\LL	A-	4.r	4.r
.	24b/	24dd\	.	.	24b\	.	24dd\	.	.	.
.	24a/JJ	24cc\JJ	.	.	24a\JJ	.	24cc\JJ	.	.	.
8d\	8g/L	8b/L	8d\	.	8g/L	.	8b\L	.	.	.
8D/J	8f#t/J	8a/J	8D/J	-men	8f#/J	.	8a\J	.	.	.
!LO:LB:g=original	!	!LO:LB:g=original	!	!	!	!	!	!	!	!
=39	=39	=39	=39	=39	=39	=39	=39	=39	=39	=39
!	!	!LO:TX:t=P:problem:mixed beam	!	!	!	!	!	!	!	!
8G\L	8g/L	8g/L	4G\	.	4g/	-men	4g/	-men	8g/L	8b\L
8G\	8b/J	8gg\J	.	.	.	.	.	.	8g/	8b\
8D\J	16a/LL	16ff#\LL	8r	.	8r	.	8r	.	8d/J	8a\J
.	16cc/JJ	16aa\JJ	.	.	.	.	.	.	.	.
!	!	!	!	!	!LO:LB:g=original	!	!	!	!	!
=40	=40	=40	=40	=40	=40	=40	=40	=40	=40	=40
!LO:TX:t=P:problem:mixed beam	!	!	!LO:TX:a:t=1.	!	!	!	!	!	!	!
8GG/L	8bL 8d/	8ggL 8b 8d/	4.r	.	4.r	.	4.r	.	8g/L	8b\L
8G\	8bJ 8d/	8ggJ 8b 8d/	.	.	.	.	.	.	8g/	8b\
8D\J	16a/LL	16ff#\LL	.	.	.	.	.	.	8d/J	8a\J
.	16cc/JJ	16aa\JJ	.	.	.	.	.	.	.	.
!	!	!	!LO:PB:g=original	!	!	!	!	!	!	!
=41	=41	=41	=41	=41	=41	=41	=41	=41	=41	=41
8G\L	8bL 8d/	8ggL 8b 8d/	4.G\	A-	4.b\	A-	4.gg\	A-	8g/L	8b\L
8G\	8b 8d/	8gg 8b 8d/	.	.	.	.	.	.	8g/	8b\
8G\J	8bJ 8d/	8ff#J 8a 8d/	.	.	.	.	.	.	8g/J	8b\J
!	!LO:LB:g=original	!	!	!	!	!	!	!	!	!
=42	=42	=42	=42	=42	=42	=42	=42	=42	=42	=42
8G\	8b 8d/	8gg 8b 8d/	8G\	-men	8b\	-men	8gg\	-men	8g\	8b\
8r	8r	8r	8r	.	8r	.	8r	.	8r	8r
8D/	8a/	8ff#\	8D\	A-	8a\	A-	8ff#\	A-	8d/	8a\
=43	=43	=43	=43	=43	=43	=43	=43	=43	=43	=43
8G\	8b 8d/	8gg 8b 8d/	8G\	-men	8b\	-men	8gg\	-men	8g\	8b\
8r	8r	8r	8r	.	8r	.	8r	.	8r	8r
8D/	8a/	8ff#\	8D\	A-	8a\	A-	8ff#\	A-	8d/	8a\
!	!	!	!	!	!	!	!	!	!	!LO:LB:g=original
=44	=44	=44	=44	=44	=44	=44	=44	=44	=44	=44
8G\L	8bL 8d/	8ggL 8b 8d/	4G\	-men	4b\	-men	4gg\	-men	8g/L	8b\L
8G\	8b 8d/	8gg 8b 8d/	.	.	.	.	.	.	8g/	8b\
8D\J	8aJ 8d/	8ff#J 8a 8d/	8D\	A-	8a\	A-	8ff#\	A-	8d/J	8a\J
!	!	!	!	!	!	!	!	!	!LO:LB:g=original	!
=45	=45	=45	=45	=45	=45	=45	=45	=45	=45	=45
!LO:TX:t=P:problem:mixed beam	!	!	!	!	!LO:TX:t=P:problem:takt nr 45 oznaczony znakiem repetycji	!	!	!	!	!
8GG/L	8bL 8d/	8ggL 8b 8d/	4G\	.	4b\yy	-men	4gg\	.	8g/L	8b\L
8G\	8b 8d/	8gg 8b 8d/	.	.	.	.	.	.	8g/	8b\
8D\J	8aJ 8d/	8ff#J 8a 8d/	8D\	.	8a\yy	A-	8ff#\	.	8d/J	8a\J
!	!	!	!	!	!	!	!LO:LB:g=original	!	!	!
=46	=46	=46	=46	=46	=46	=46	=46	=46	=46	=46
8G\L	8bL 8d/	8ggL 8b 8d/	4G\	-men	4b\	-men	4gg\	-men	8g/L	8b\L
8G\	8b 8d/	8gg 8b 8d/	.	.	.	.	.	.	8g/	8b\
8G\J	8bJ 8d/	8ggJ 8b 8d/	8G\	A-	8b\	A-	8gg\	A-	8g/J	8b\J
=47	=47	=47	=47	=47	=47	=47	=47	=47	=47	=47
4G\	4b 4d/	4gg 4b 4d/	4G\	-men	4b\	-men.	4gg\	-men.	4g\	4b\
8r	8r	8r	8r	.	8r	.	8r	.	8r	8r
==	==	==	==	==	==	==	==	==	==	==
*-	*-	*-	*-	*-	*-	*-	*-	*-	*-	*-
!!!system-decoration: [(s1,s2)][(g1)][(s6,s7)]<s8>
!!!RDF**kern: > = above
!!!RDF**kern: < = below
!!!AIN: 1 bass 2 cor 1 organ 2 soprn 2 violn
!!!ENC: Marcin Jachim
!!!END: 2020-08-20
!!!ENC: Andrzej Kubiczek
!!!END: 2021-11-06
